X: 31272
T: Paddy Hayes's
R: jig
M: 6/8
K: Gmajor
d|:ABG AGE|B,DD EDB,|BAG AGE|edB A2d|
ABG AGE|B,DD EDE|GAB edB|1 AGF G2d:|2 AGF G2D||
|:GAB [cE]3|BAG AFD|GBd g2e|fdd def|
g3 agf|g (3efg fdB|ABc dcA|1 AGF G2 D:|2 AGF G3||

